assets/Right arrow curving left/Flat/right_arrow_curving_left_flat.svg

<svg width="32" height="32" viewBox="0 0 32 32" fill="none" xmlns="http://www.w3.org/2000/svg">
<path d="M2 6C2 3.79086 3.79086 2 6 2H26C28.2091 2 30 3.79086 30 6V26C30 28.2091 28.2091 30 26 30H6C3.79086 30 2 28.2091 2 26V6Z" fill="#00A6ED"/>
<path d="M19.0033 7.00001C22.8678 7.0019 26 10.359 26 14.5C26 18.6421 22.866 22 19 22H12.25C12.112 22 12 22.1119 12 22.25V24.6601C12 25.3427 11.1623 25.6704 10.6991 25.169L6.47014 20.591C6.2047 20.3036 6.2047 19.8605 6.47014 19.5732L10.6991 14.9952C11.1623 14.4938 12 14.8215 12 15.5041V17.75C12 17.8881 12.112 18 12.25 18H19C20.4014 18 22 16.6974 22 14.5C22 12.3026 20.4014 11 19 11H13C12.4477 11 12 10.5523 12 10V8C12 7.44772 12.4477 7 13 7H19L19.0033 7.00001Z" fill="white"/>
</svg>

<svg xmlns="http://www.w3.org/2000/svg" width="32" height="32" fill="none"><path fill="#00A6ED" d="M2 6a4 4 0 0 1 4-4h20a4 4 0 0 1 4 4v20a4 4 0 0 1-4 4H6a4 4 0 0 1-4-4V6Z"/><path fill="#fff" d="M19.003 7C22.868 7.002 26 10.359 26 14.5c0 4.142-3.134 7.5-7 7.5h-6.75a.25.25 0 0 0-.25.25v2.41a.75.75 0 0 1-1.3.509l-4.23-4.578a.75.75 0 0 1 0-1.018l4.23-4.578a.75.75 0 0 1 1.3.51v2.245c0 .138.112.25.25.25H19c1.401 0 3-1.303 3-3.5S20.401 11 19 11h-6a1 1 0 0 1-1-1V8a1 1 0 0 1 1-1h6.003Z"/></svg>
